X:146
T:Honeymoon
Z: id:dc-reel-134
M:C
L:1/8
K:G Major
dc|BGAF DGG2|Bdef gedc|BGG2 DGG2|BedB A2dc|!
BGAF DGG2|Bdef g3a|bgaf gfed|egdB A2:|!
Bd|e3f edBA|Bdef gedc|BGG2 DGG2|BedB A2Bd|!
e3f edBA|Bdef g3a|bgaf gfed|egdB A2:|!

